actions/22x22-dark/edit-image-face-show.svg

<svg xmlns="http://www.w3.org/2000/svg" viewBox="0 0 22 22">
 <defs id="defs3051">
   <style type="text/css" id="current-color-scheme">
     .ColorScheme-Text {
       color:#f2f2f2;
     }
     </style>
 </defs>
   <path
      style="fill:currentColor;fill-opacity:1;stroke:none"
      d="m4 3c-.5539948 0-1 .4459996-1 1v14c0 .554.4460052 1 1 1h14c .554006 0 1-.446 1-1v-14c0-.5540004-.445994-1-1-1zm6.976562 2.1816406c1.458123 0 2.712891.9902149 2.712891 2.8769532 0 1.2270459-.574141 2.4715522-1.326172 3.2460942h.003907c-.288501.876986.173049 1.085486.246093 1.109374 1.74787.600492 3.959468 2.098475 3.910157 4.404297h-11.0488286c-.044246-2.413756 2.7532219-4.071854 3.78125-4.404297.1102549-.039967.6367289-.325986.3417968-1.099609-.7566247-.772703-1.328125-2.0237599-1.328125-3.2558592.0000001-1.8871977 1.2479905-2.8769532 2.7070308-2.8769532z"
      class="ColorScheme-Text" />
</svg>

<svg xmlns="http://www.w3.org/2000/svg" viewBox="0 0 22 22">
  <defs id="defs3051">
    <style type="text/css" id="current-color-scheme">
      .ColorScheme-Text {
        color:#f2f2f2
      }
      </style>
  </defs>
 <path 
     style="fill:currentColor;fill-opacity:1;stroke:none"      
	 class="ColorScheme-Text"
        d="M 4 3 C 3.4460052 3 3 3.4459996 3 4 L 3 18 C 3 18.554 3.4460052 19 4 19 L 18 19 C 18.554006 19 19 18.554 19 18 L 19 4 C 19 3.4459996 18.554006 3 18 3 L 4 3 z M 10.976562 5.1816406 C 12.434685 5.1816406 13.689453 6.1718555 13.689453 8.0585938 C 13.689453 9.2856397 13.115312 10.530146 12.363281 11.304688 L 12.367188 11.304688 C 12.078687 12.181674 12.540237 12.390174 12.613281 12.414062 C 14.361151 13.014554 16.572749 14.512537 16.523438 16.818359 L 5.4746094 16.818359 C 5.4303634 14.404603 8.2278313 12.746505 9.2558594 12.414062 C 9.3661143 12.374095 9.8925883 12.088076 9.5976562 11.314453 C 8.8410315 10.54175 8.2695312 9.2906931 8.2695312 8.0585938 C 8.2695313 6.1713961 9.5175217 5.1816406 10.976562 5.1816406 z "
     />
</svg>
